packages/paste-icons/svg/CreditCard.svg

<svg width="20" height="20" viewBox="0 0 20 20" fill="none" xmlns="http://www.w3.org/2000/svg">
<path fill-rule="evenodd" clip-rule="evenodd" d="M2 6.5C2 5.67157 2.67157 5 3.5 5H16.5C17.3284 5 18 5.67157 18 6.5V8.5V14.5C18 15.3284 17.3284 16 16.5 16H3.5C2.67157 16 2 15.3284 2 14.5V8.5V6.5ZM17 6.5V8H3V6.5C3 6.22386 3.22386 6 3.5 6H16.5C16.7761 6 17 6.22386 17 6.5ZM17 9H3V14.5C3 14.7761 3.22386 15 3.5 15H16.5C16.7761 15 17 14.7761 17 14.5V9ZM10.5 12C10.2239 12 10 12.2239 10 12.5C10 12.7761 10.2239 13 10.5 13H14.5C14.7761 13 15 12.7761 15 12.5C15 12.2239 14.7761 12 14.5 12H10.5Z" fill="#606B85"/>
</svg>

<svg width="20" height="20" fill="none" xmlns="http://www.w3.org/2000/svg">
  <path fill-rule="evenodd" clip-rule="evenodd" d="M2 6.5A1.5 1.5 0 013.5 5h13A1.5 1.5 0 0118 6.5v8a1.5 1.5 0 01-1.5 1.5h-13A1.5 1.5 0 012 14.5v-8zm15 0V8H3V6.5a.5.5 0 01.5-.5h13a.5.5 0 01.5.5zM17 9H3v5.5a.5.5 0 00.5.5h13a.5.5 0 00.5-.5V9zm-6.5 3a.5.5 0 000 1h4a.5.5 0 000-1h-4z" fill="#606B85"/>
</svg>
